X: 41399
T: Twenty Years
R: reel
M: 4/4
K: Amajor
AD (3DDD cdcA|BAGB- BABc|BE (3EEE B2 c2-|cBBA GABc|AD (3DDD cdcA|
BAGB- BABA|1 FAf2- fe c2-|ce (3cBA BABc:|2 FGAG ABc2-|cBcd eage ]|
f3e fga2-|agfe feBc-|cAcA B3B-|BABc eaga|
f3e fga2-|agfe feBc-|cAcA B2ae|abc'd' c'aea|
f3e fga2-|agfe feBc-|cAcA B3B-|BAB=c ^cAB2|
AD (3DDD cdcA|BAGB- BABA|FAf2- fec2-|cecA BcBA|
|:F2 e2 ef2F-|FFe2 ef3|E2 f2 fg2E-|EEf2 fg3|
D2 g2 ga2D-|DDg2 ga2c'-|d'c'bc' bafa|zaba c'2ba:|

